!!!OTL: Fox River Line
!!!ONM: 116.
**kern
*clefG2
*k[b-]
*B-:
*M3/4
*MM110
{4.f
8f
=1
4B-
4f
4f
=2
4B-
4f
8c
8d
=3
4c
4B-
4A
=4
4B-
4r}
{8f
8f
=5
4f
4g
4f
=6
*k[b-e-]
8f
4.d
4B-
=7
4d
4B-
4c
=8
4B-
4r}
{8f
8f
=9
4f
4B-
8.f
16f
=10
4f
4B-
4d
=11
4c
4B-
4A
=12
4B-
4r}
{8f
8f
=13
4f
4g
4f
=14
4f
4r
8B-
8d
=15
4d
4B-
4A
=16
2B-
4r}
==
*-
!!!CNT: Folksongs of Maritime Canada
!!!MRD: 1928///-1932///
!!!OCL: Helen Creighton
!!!YOR: Songs and Ballads from Nova Scotia
!!!PPR: J.M. Dent & Sons, Limited
!!!PPP: Toronto, Canada
!!!PDT: 1932///
!!!reprint: Dover Publications, 1992: ISBN 0-486-21703-5
!!!ENC1: Craig Stuart Sapp (music and bibliographic data)                       
!!!ENC2: Marcus Pearce (phrase markings and key designations)                   
!!!ENC3: Darrell Conklin (phrase markings and key designations)   
!!!END: 2002/04/10/
!!!EEV: 2004/06/05
!!!MPN: Dr. Perry Cochrane
!!!PPG: 252
!!!EFL: 117/152
!!!ARE: Canada; Nova Scotia
!!!verses: 8
!!!VTS: 850406476
